img/svg/googleplay.svg

<svg width="122" height="29" viewBox="0 0 122 29" fill="none" xmlns="http://www.w3.org/2000/svg">
<path d="M39.5064 3.71354C39.5064 4.55325 39.2975 5.28799 38.7753 5.81281C38.1486 6.44258 37.4175 6.75747 36.4775 6.75747C35.5375 6.75747 34.8064 6.44258 34.1797 5.81281C33.5531 5.18303 33.2397 4.44828 33.2397 3.50362C33.2397 2.55895 33.5531 1.8242 34.1797 1.19442C34.8064 0.564646 35.5375 0.249756 36.4775 0.249756C36.8953 0.249756 37.3131 0.354719 37.7309 0.564645C38.1486 0.774572 38.462 0.984498 38.6709 1.29939L38.1486 1.8242C37.7309 1.29939 37.2086 1.08946 36.4775 1.08946C35.8509 1.08946 35.2242 1.29939 34.8064 1.8242C34.2842 2.24406 34.0753 2.87384 34.0753 3.60858C34.0753 4.34332 34.2842 4.9731 34.8064 5.39295C35.3286 5.81281 35.8509 6.1277 36.4775 6.1277C37.2086 6.1277 37.7309 5.91777 38.2531 5.39295C38.5664 5.07806 38.7753 4.65821 38.7753 4.13339H36.4775V3.29369H39.5064V3.71354ZM44.3109 1.08946H41.4909V3.08376H44.102V3.81851H41.4909V5.81281H44.3109V6.65251H40.6553V0.354719H44.3109V1.08946ZM47.7575 6.65251H46.922V1.08946H45.1464V0.354719H49.5331V1.08946H47.7575V6.65251ZM52.562 6.65251V0.354719H53.3975V6.65251H52.562ZM56.9486 6.65251H56.1131V1.08946H54.3375V0.354719H58.6197V1.08946H56.8442V6.65251H56.9486ZM66.8708 5.81281C66.2442 6.44258 65.5131 6.75747 64.5731 6.75747C63.6331 6.75747 62.902 6.44258 62.2753 5.81281C61.6486 5.18303 61.3353 4.44828 61.3353 3.50362C61.3353 2.55895 61.6486 1.8242 62.2753 1.19442C62.902 0.564646 63.6331 0.249756 64.5731 0.249756C65.5131 0.249756 66.2442 0.564646 66.8708 1.19442C67.4975 1.8242 67.8108 2.55895 67.8108 3.50362C67.8108 4.44828 67.4975 5.18303 66.8708 5.81281ZM62.902 5.28799C63.3197 5.70784 63.9464 6.02273 64.5731 6.02273C65.1997 6.02273 65.8264 5.81281 66.2442 5.28799C66.662 4.86814 66.9753 4.23836 66.9753 3.50362C66.9753 2.76887 66.7664 2.13909 66.2442 1.71924C65.8264 1.29939 65.1997 0.984498 64.5731 0.984498C63.9464 0.984498 63.3197 1.19442 62.902 1.71924C62.4842 2.13909 62.1708 2.76887 62.1708 3.50362C62.1708 4.23836 62.3797 4.86814 62.902 5.28799ZM68.9597 6.65251V0.354719H69.8997L72.9286 5.28799V0.354719H73.7642V6.65251H72.9286L69.6908 1.50931V6.65251H68.9597Z" fill="black"/>
<path d="M61.1265 15.8893C58.6199 15.8893 56.6354 17.7787 56.6354 20.4027C56.6354 22.9219 58.6199 24.9162 61.1265 24.9162C63.6332 24.9162 65.6177 23.0268 65.6177 20.4027C65.6177 17.6737 63.6332 15.8893 61.1265 15.8893ZM61.1265 23.0268C59.7688 23.0268 58.6199 21.8722 58.6199 20.2978C58.6199 18.7233 59.7688 17.5687 61.1265 17.5687C62.4843 17.5687 63.6332 18.6184 63.6332 20.2978C63.6332 21.8722 62.4843 23.0268 61.1265 23.0268ZM51.4132 15.8893C48.9065 15.8893 46.9221 17.7787 46.9221 20.4027C46.9221 22.9219 48.9065 24.9162 51.4132 24.9162C53.9199 24.9162 55.9043 23.0268 55.9043 20.4027C55.9043 17.6737 53.9199 15.8893 51.4132 15.8893ZM51.4132 23.0268C50.0554 23.0268 48.9065 21.8722 48.9065 20.2978C48.9065 18.7233 50.0554 17.5687 51.4132 17.5687C52.771 17.5687 53.9199 18.6184 53.9199 20.2978C53.9199 21.8722 52.771 23.0268 51.4132 23.0268ZM39.8199 17.2539V19.1432H44.311C44.2065 20.1928 43.7887 21.0325 43.2665 21.5573C42.6399 22.1871 41.5954 22.9219 39.8199 22.9219C36.9999 22.9219 34.911 20.7176 34.911 17.8836C34.911 15.0496 37.1043 12.8454 39.8199 12.8454C41.2821 12.8454 42.431 13.4752 43.2665 14.2099L44.6243 12.8454C43.4754 11.7958 42.0132 10.9561 39.9243 10.9561C36.1643 10.9561 32.9265 14.105 32.9265 17.8836C32.9265 21.6623 36.1643 24.8112 39.9243 24.8112C42.0132 24.8112 43.4754 24.1814 44.7288 22.8169C45.9821 21.5573 46.3999 19.773 46.3999 18.4084C46.3999 17.9886 46.3999 17.5687 46.2954 17.2539H39.8199ZM87.2377 18.7233C86.8199 17.6737 85.7755 15.8893 83.4777 15.8893C81.1799 15.8893 79.2999 17.6737 79.2999 20.4027C79.2999 22.9219 81.1799 24.9162 83.6866 24.9162C85.671 24.9162 86.9243 23.6566 87.3421 22.9219L85.8799 21.8722C85.3577 22.607 84.731 23.1318 83.6866 23.1318C82.6421 23.1318 82.0154 22.7119 81.4932 21.7673L87.4466 19.2482L87.2377 18.7233ZM81.1799 20.1928C81.1799 18.5134 82.5377 17.5687 83.4777 17.5687C84.2088 17.5687 84.9399 17.9886 85.1488 18.5134L81.1799 20.1928ZM76.271 24.4963H78.2554V11.3759H76.271V24.4963ZM73.1377 16.834C72.6154 16.3092 71.7799 15.7844 70.7354 15.7844C68.5421 15.7844 66.4532 17.7787 66.4532 20.2978C66.4532 22.8169 68.4377 24.7062 70.7354 24.7062C71.7799 24.7062 72.6154 24.1814 73.0332 23.6566H73.1377V24.2864C73.1377 25.9658 72.1977 26.9105 70.7354 26.9105C69.5866 26.9105 68.751 26.0708 68.5421 25.336L66.871 26.0708C67.3932 27.2254 68.6466 28.6948 70.8399 28.6948C73.1377 28.6948 75.0177 27.3303 75.0177 24.0765V16.0993H73.1377V16.834ZM70.8399 23.0268C69.4821 23.0268 68.3332 21.8722 68.3332 20.2978C68.3332 18.7233 69.4821 17.5687 70.8399 17.5687C72.1977 17.5687 73.2421 18.7233 73.2421 20.2978C73.2421 21.8722 72.1977 23.0268 70.8399 23.0268ZM96.3244 11.3759H91.6244V24.4963H93.6088V19.563H96.3244C98.5177 19.563 100.607 17.9886 100.607 15.4695C100.607 12.9504 98.5177 11.3759 96.3244 11.3759ZM96.4288 17.6737H93.6088V13.1603H96.4288C97.891 13.1603 98.7266 14.4198 98.7266 15.3645C98.6221 16.5191 97.7866 17.6737 96.4288 17.6737ZM108.44 15.7844C106.978 15.7844 105.515 16.4141 104.993 17.7787L106.769 18.5134C107.187 17.7787 107.813 17.5687 108.544 17.5687C109.589 17.5687 110.529 18.1985 110.633 19.2482V19.3531C110.32 19.1432 109.484 18.8283 108.649 18.8283C106.769 18.8283 104.889 19.8779 104.889 21.7673C104.889 23.5516 106.455 24.7062 108.127 24.7062C109.484 24.7062 110.111 24.0765 110.633 23.4467H110.738V24.4963H112.618V19.4581C112.409 17.1489 110.633 15.7844 108.44 15.7844ZM108.231 23.0268C107.604 23.0268 106.664 22.7119 106.664 21.8722C106.664 20.8226 107.813 20.5077 108.753 20.5077C109.589 20.5077 110.007 20.7176 110.529 20.9276C110.32 22.1871 109.275 23.0268 108.231 23.0268ZM119.198 16.0993L117.004 21.7673H116.9L114.602 16.0993H112.513L115.96 24.0765L113.975 28.4849H115.96L121.287 16.0993H119.198ZM101.651 24.4963H103.635V11.3759H101.651V24.4963Z" fill="black"/>
<path d="M0.862113 0.879639C0.54878 1.19453 0.444336 1.71934 0.444336 2.34912V25.546C0.444336 26.1758 0.653225 26.7006 0.966558 27.0155L1.071 27.1205L14.0221 14.105V13.8951L0.862113 0.879639Z" fill="url(#paint0_linear)"/>
<path d="M18.1996 18.5134L13.9174 14.2099V13.8951L18.1996 9.59155L18.304 9.69652L23.4218 12.6355C24.884 13.4752 24.884 14.8397 23.4218 15.6794L18.1996 18.5134Z" fill="url(#paint1_linear)"/>
<path d="M18.3045 18.4085L13.9179 14L0.862305 27.1204C1.38453 27.6452 2.11564 27.6452 3.05564 27.2254L18.3045 18.4085Z" fill="url(#paint2_linear)"/>
<path d="M18.3045 9.59142L3.05564 0.879465C2.11564 0.354648 1.38453 0.459612 0.862305 0.984428L13.9179 13.9999L18.3045 9.59142Z" fill="url(#paint3_linear)"/>
<path opacity="0.2" d="M18.2001 18.3035L3.05564 26.9104C2.22008 27.4353 1.48897 27.3303 0.96675 26.9104L0.862305 27.0154L0.96675 27.1204C1.48897 27.5402 2.22008 27.6452 3.05564 27.1204L18.2001 18.3035Z" fill="black"/>
<path opacity="0.2" d="M0.862113 26.9105C0.54878 26.5956 0.444336 26.0708 0.444336 25.441V25.546C0.444336 26.1757 0.653225 26.7006 0.966558 27.0155V26.9105H0.862113ZM23.4221 15.3645L18.1999 18.3035L18.3043 18.4085L23.4221 15.4695C24.1532 15.0496 24.4665 14.5248 24.4665 14C24.4665 14.5248 24.0488 14.9447 23.4221 15.3645Z" fill="black"/>
<path opacity="0.2" d="M3.05544 0.984561L23.4221 12.6355C24.0488 13.0553 24.4665 13.4752 24.4665 14C24.4665 13.4752 24.1532 12.9504 23.4221 12.5305L3.05544 0.879598C1.59322 0.0398913 0.444336 0.669671 0.444336 2.34908V2.45405C0.444336 0.879598 1.59322 0.144854 3.05544 0.984561Z" fill="white"/>
<defs>
<linearGradient id="paint0_linear" x1="12.7688" y1="2.14969" x2="-4.84699" y2="19.6773" gradientUnits="userSpaceOnUse">
<stop stop-color="#00A0FF"/>
<stop offset="0.007" stop-color="#00A1FF"/>
<stop offset="0.26" stop-color="#00BEFF"/>
<stop offset="0.512" stop-color="#00D2FF"/>
<stop offset="0.76" stop-color="#00DFFF"/>
<stop offset="1" stop-color="#00E3FF"/>
</linearGradient>
<linearGradient id="paint1_linear" x1="25.3373" y1="14.0011" x2="0.0649352" y2="14.0011" gradientUnits="userSpaceOnUse">
<stop stop-color="#FFE000"/>
<stop offset="0.409" stop-color="#FFBD00"/>
<stop offset="0.775" stop-color="#FFA500"/>
<stop offset="1" stop-color="#FF9C00"/>
</linearGradient>
<linearGradient id="paint2_linear" x1="15.9305" y1="16.41" x2="-7.95678" y2="40.1791" gradientUnits="userSpaceOnUse">
<stop stop-color="#FF3A44"/>
<stop offset="1" stop-color="#C31162"/>
</linearGradient>
<linearGradient id="paint3_linear" x1="-2.37861" y1="-6.80805" x2="8.28868" y2="3.80652" gradientUnits="userSpaceOnUse">
<stop stop-color="#32A071"/>
<stop offset="0.069" stop-color="#2DA771"/>
<stop offset="0.476" stop-color="#15CF74"/>
<stop offset="0.801" stop-color="#06E775"/>
<stop offset="1" stop-color="#00F076"/>
</linearGradient>
</defs>
</svg>

<svg width="122" height="29" viewBox="0 0 122 29" fill="none" xmlns="http://www.w3.org/2000/svg"><path d="M39.506 3.714c0 .84-.209 1.574-.73 2.099-.627.63-1.359.944-2.299.944s-1.67-.314-2.297-.944c-.627-.63-.94-1.365-.94-2.31 0-.944.313-1.679.94-2.309.626-.63 1.358-.944 2.297-.944.418 0 .836.105 1.254.315.418.21.731.42.94.734l-.522.525c-.418-.525-.94-.735-1.672-.735-.626 0-1.253.21-1.67.735-.523.42-.732 1.05-.732 1.785 0 .734.21 1.364.731 1.784.523.42 1.045.735 1.672.735.73 0 1.253-.21 1.775-.735.313-.315.522-.735.522-1.26h-2.297v-.84h3.028v.42zm4.805-2.625h-2.82v1.995h2.611v.735h-2.611v1.994h2.82v.84h-3.656V.355h3.656v.734zm3.447 5.564h-.836V1.089h-1.776V.355h4.387v.734h-1.776v5.564zm4.804 0V.355h.836v6.298h-.836zm4.387 0h-.836V1.089h-1.776V.355h4.283v.734h-1.776v5.564h.105zm9.922-.84c-.627.63-1.358.944-2.298.944s-1.671-.314-2.298-.944c-.626-.63-.94-1.365-.94-2.31 0-.944.314-1.679.94-2.309.627-.63 1.358-.944 2.298-.944s1.671.315 2.298.944c.627.63.94 1.365.94 2.31 0 .944-.314 1.679-.94 2.309zm-3.969-.525c.418.42 1.044.735 1.671.735s1.253-.21 1.671-.735c.418-.42.731-1.05.731-1.784 0-.735-.209-1.365-.73-1.785-.419-.42-1.045-.735-1.672-.735s-1.253.21-1.671.735a2.539 2.539 0 00-.731 1.785c0 .734.209 1.364.731 1.784zm6.058 1.365V.355h.94l3.029 4.933V.355h.835v6.298h-.835L69.69 1.509v5.144h-.731zm-7.833 9.237c-2.507 0-4.492 1.889-4.492 4.513 0 2.519 1.985 4.513 4.492 4.513 2.506 0 4.49-1.89 4.49-4.513 0-2.73-1.984-4.514-4.49-4.514zm0 7.137c-1.358 0-2.507-1.155-2.507-2.73 0-1.574 1.149-2.728 2.507-2.728 1.357 0 2.506 1.05 2.506 2.729 0 1.574-1.149 2.729-2.507 2.729zm-9.714-7.138c-2.506 0-4.49 1.89-4.49 4.514 0 2.519 1.983 4.513 4.49 4.513s4.491-1.89 4.491-4.513c0-2.73-1.984-4.514-4.49-4.514zm0 7.138c-1.358 0-2.506-1.155-2.506-2.73 0-1.574 1.148-2.728 2.506-2.728 1.358 0 2.507 1.05 2.507 2.729 0 1.574-1.149 2.729-2.507 2.729zM39.82 17.254v1.89h4.491c-.105 1.049-.522 1.889-1.044 2.413-.627.63-1.672 1.365-3.447 1.365-2.82 0-4.909-2.204-4.909-5.038s2.193-5.039 4.909-5.039c1.462 0 2.611.63 3.447 1.365l1.357-1.365c-1.149-1.05-2.61-1.889-4.7-1.889-3.76 0-6.998 3.149-6.998 6.928 0 3.778 3.238 6.927 6.998 6.927 2.09 0 3.551-.63 4.805-1.994 1.253-1.26 1.67-3.044 1.67-4.409 0-.42 0-.84-.104-1.154H39.82zm47.418 1.47c-.418-1.05-1.463-2.835-3.76-2.835-2.298 0-4.178 1.785-4.178 4.514 0 2.519 1.88 4.513 4.387 4.513 1.984 0 3.237-1.26 3.655-1.994l-1.462-1.05c-.522.735-1.149 1.26-2.193 1.26-1.045 0-1.672-.42-2.194-1.365l5.954-2.519-.21-.525zm-6.058 1.469c0-1.68 1.358-2.624 2.298-2.624.73 0 1.462.42 1.67.944l-3.968 1.68zm-4.909 4.303h1.984v-13.12h-1.984v13.12zm-3.133-7.662c-.523-.525-1.358-1.05-2.403-1.05-2.193 0-4.282 1.995-4.282 4.514s1.985 4.408 4.282 4.408c1.045 0 1.88-.525 2.298-1.05h.105v.63c0 1.68-.94 2.624-2.403 2.624-1.148 0-1.984-.84-2.193-1.574l-1.671.735c.522 1.154 1.776 2.624 3.969 2.624 2.298 0 4.178-1.365 4.178-4.619V16.1h-1.88v.735zm-2.298 6.193c-1.358 0-2.507-1.155-2.507-2.73 0-1.574 1.15-2.728 2.507-2.728 1.358 0 2.402 1.154 2.402 2.729 0 1.574-1.044 2.729-2.402 2.729zm25.484-11.651h-4.7v13.12h1.985v-4.933h2.715c2.194 0 4.283-1.574 4.283-4.093 0-2.52-2.09-4.094-4.283-4.094zm.105 6.298h-2.82V13.16h2.82c1.462 0 2.298 1.26 2.298 2.204-.105 1.155-.94 2.31-2.298 2.31zm12.011-1.89c-1.462 0-2.925.63-3.447 1.995l1.776.734c.418-.734 1.044-.944 1.775-.944 1.045 0 1.985.63 2.089 1.68v.104c-.313-.21-1.149-.525-1.984-.525-1.88 0-3.76 1.05-3.76 2.94 0 1.784 1.566 2.938 3.238 2.938 1.357 0 1.984-.63 2.506-1.26h.105v1.05h1.88v-5.038c-.209-2.31-1.985-3.674-4.178-3.674zm-.209 7.243c-.627 0-1.567-.315-1.567-1.155 0-1.05 1.149-1.364 2.089-1.364.836 0 1.254.21 1.776.42-.209 1.26-1.254 2.099-2.298 2.099zm10.967-6.928l-2.194 5.668h-.104l-2.298-5.668h-2.089l3.447 7.977-1.985 4.409h1.985l5.327-12.386h-2.089zm-17.547 8.397h1.984v-13.12h-1.984v13.12z" fill="#000"/><path d="M.862.88c-.313.315-.418.84-.418 1.47v23.196c0 .63.21 1.155.523 1.47l.104.105 12.951-13.016v-.21L.862.88z" fill="url(#paint0_linear)"/><path d="M18.2 18.513l-4.283-4.303v-.315L18.2 9.592l.104.105 5.118 2.939c1.462.84 1.462 2.204 0 3.043L18.2 18.513z" fill="url(#paint1_linear)"/><path d="M18.305 18.409L13.918 14 .862 27.12c.523.525 1.254.525 2.194.105l15.248-8.817z" fill="url(#paint2_linear)"/><path d="M18.305 9.591L3.055.88C2.116.355 1.386.46.863.984L13.918 14l4.387-4.409z" fill="url(#paint3_linear)"/><path opacity=".2" d="M18.2 18.303L3.056 26.91c-.836.525-1.567.42-2.09 0l-.104.105.105.105c.522.42 1.253.525 2.089 0L18.2 18.303z" fill="#000"/><path opacity=".2" d="M.862 26.91c-.313-.314-.418-.84-.418-1.469v.105c0 .63.21 1.155.523 1.47v-.105H.862zm22.56-11.546l-5.222 2.94.104.105 5.118-2.94c.731-.42 1.044-.944 1.044-1.469 0 .525-.417.945-1.044 1.364z" fill="#000"/><path opacity=".2" d="M3.055.985l20.367 11.65c.627.42 1.044.84 1.044 1.365 0-.525-.313-1.05-1.044-1.47L3.055.88C1.593.04.445.67.445 2.35v.104C.444.88 1.592.144 3.054.984z" fill="#fff"/><defs><linearGradient id="paint0_linear" x1="12.769" y1="2.15" x2="-4.847" y2="19.677" gradientUnits="userSpaceOnUse"><stop stop-color="#00A0FF"/><stop offset=".007" stop-color="#00A1FF"/><stop offset=".26" stop-color="#00BEFF"/><stop offset=".512" stop-color="#00D2FF"/><stop offset=".76" stop-color="#00DFFF"/><stop offset="1" stop-color="#00E3FF"/></linearGradient><linearGradient id="paint1_linear" x1="25.337" y1="14.001" x2=".065" y2="14.001" gradientUnits="userSpaceOnUse"><stop stop-color="#FFE000"/><stop offset=".409" stop-color="#FFBD00"/><stop offset=".775" stop-color="orange"/><stop offset="1" stop-color="#FF9C00"/></linearGradient><linearGradient id="paint2_linear" x1="15.931" y1="16.41" x2="-7.957" y2="40.179" gradientUnits="userSpaceOnUse"><stop stop-color="#FF3A44"/><stop offset="1" stop-color="#C31162"/></linearGradient><linearGradient id="paint3_linear" x1="-2.379" y1="-6.808" x2="8.289" y2="3.807" gradientUnits="userSpaceOnUse"><stop stop-color="#32A071"/><stop offset=".069" stop-color="#2DA771"/><stop offset=".476" stop-color="#15CF74"/><stop offset=".801" stop-color="#06E775"/><stop offset="1" stop-color="#00F076"/></linearGradient></defs></svg>
